X:1
T:Polly Wants A Cracker
T:Polly Wants A Cracker
T:Chester G. Allen
C:Chester G. Allen
%%score [ ( 1 2 ) 3 4 ]
L:1/8
Q:1/4=120
M:2/2
K:G
V:1 treble nm="Soprano" snm="S"
V:2 treble 
V:3 treble-8 nm="Tenor" snm="T"
V:4 bass nm="Bass" snm="B"
V:1
"^Alto""^Words by George Cooper" z6 D2 | G2 B2 B2 G2 | AGFG A2 A2 | B2 e2 d2 B2 | A4 A2 D2 | %5
w: 1.While|oth- er bir- dies|war- ble in de- light, Up-|on your perch you're|cling- ing, As|
"^A""^5" G2 B2 B2 G2 | AGFG A2 B2 | A2 G2 F2 E2 | D4 D2 d2 | c2 d2 c2 d2 |"^A""^10" B2 d2 B2 d2 | %11
w: grave and so- ber,|mor- ning, noon and night, With-|out one note of|sing- ing. And|still you chat- ter|to your- self, You|
 c2 d2 c2 d2 | B2 d2 B2 D2 | G2 D2 E2 F2 | GABc !fermata!d2 d2 |"^A""^15" e2 A2 ABcd | B2 G4 z2 | %17
w: hun- gry, dis- con-|tent- ed elf, No|mat- ter wheth- er|skies are dull or bright, It's|"pret- ty Pol- ly wants a|crack- er!"|
 AAAA AFED | dcBc !fermata!d2 d2 |"^A""^19" e2 A2 ABcd | B2 G4 z2 |] %21
w: Chat- ter, chat- ter, chat- ter, chat- ter,|all the live- long day, It's|"pret- ty Pol- ly wants a|crack- er!"|
V:2
 z6 D2 | D2 D2 D2 D2 | DDDD F2 F2 | G2 G2 G2 G2 | F4 F2 D2 | D2 D2 D2 D2 | DDDD F2 G2 | %7
 D2 E2 D2 ^C2 | D4 D2 F2 | A2 B2 A2 B2 | G2 B2 G2 B2 | A2 B2 A2 B2 | G2 B2 G2 D2 | D2 D2 C2 D2 | %14
 DFGF G2 G2 | G2 E2 FGAB | G2 G4 z2 | FFFF FD^CD | DDDF G2 G2 | G2 E2 FGAB | G2 G4 z2 |] %21
V:3
 z6 d2 | B2 G2 G2 B2 | cBAB d2 d2 | d2 c2 d2 d2 | d4 d2 d2 | B2 G2 G2 B2 | cBAB d2 d2 | %7
w: 2.Your|cage is al- ways|hang- ing in the sun, And|chil- dren home- ward|stray- ing, When|school is o- ver|gath- er, one by one, To|
 d2 B2 A2 G2 | F4 F2 A2 | d2 d2 d2 d2 | d2 d2 d2 d2 | d2 d2 d2 d2 | d2 d2 d2 d2 | B2 G2 G2 c2 | %14
w: hear what Poll is|say- ing. With|side- long head you|ev- er stand, Your|ap- pe- tite, it|must be grand, For|all you an- swer|
 BAGd !fermata!d2 d2 | c2 e2 dddd | d2 B4 z2 | dddd dAGF | GFGd !fermata!d2 d2 | c2 e2 dddd | %20
w: to the chil- dren's fun, Is|"pret- ty Pol- ly wants a|crack- er!"|Chat- ter, chat- ter, chat- ter, chat- ter,|all the live- long day, It's|"pret- ty Pol- ly wants a|
 d2 B4 z2 |] %21
w: crack- er!"|
V:4
 z6 D,2 | G,,2 G,2 G,2 G,2 | D,D,D,D, D,2 D,2 | G,2 C2 B,2 G,2 | D,4 D,2 D,2 | G,,2 G,2 G,2 G,2 | %6
w: 3.And|yet, it strikes me,|litt- le peo- ple, too, And|big ones, for that|mat- ter, Quite|rare- ly here their|
 D,D,D,D, D,2 G,2 | F,2 G,2 A,2 A,,2 | D,4 D,2 D,2 | D,2 D,2 D,2 D,2 | G,2 G,2 G,2 G,2 | %11
w: qui- et way pur- sue, Nor|still for some- thing|chat- ter. Oh,|nev- er sat- is-|fied are we, as|
 D,2 D,2 D,2 D,2 | G,2 G,2 G,2 D,2 | G,,2 B,,2 C,2 A,,2 | B,,D,G,A, !fermata!B,2 B,,2 | %15
w: like poor Pol- ly,|as can be! Some|i- dle wish still|calls to me and you, "Oh!|
 C,2 C,2 D,D,D,D, | G,2 G,4 z2 | D,D,D,D, D,D,D,D, | B,,A,,G,,A,, !fermata!B,,2 B,,2 | %19
w: pret- ty Pol- ly wants a|crack- er!"|Chat- ter, chat- ter, chat- ter, chat- ter,|all the live- long day, It's|
"^Copyright © 2003 according to the terms of the CPDL (http://www.cpdl.org).\nEdition may be freely distributed, duplicated, performed, or recorded." C,2 C,2 D,D,D,D, | %20
w: "pret- ty Pol- ly wants a|
 G,2 G,4 z2 |] %21
w: crack- er!"|

